X:1
T:T. Worsley Staniforth
T:Wharncliffe
%%score { ( 1 2 ) | ( 3 4 ) }
L:1/8
Q:1/4=184
M:4/2
K:Bb
V:1 treble 
V:2 treble 
V:3 bass 
V:4 bass 
V:1
"^Presto" B4 B4 B4 c4 | d8 F8 | G4 F4 B4 d4 | c16 | d4 d4 e4 d4 | d8 c8 | B4 G4 B4 A4 | B16 | %8
 c6 c2 B4 A4 | A8 G8 | F4 F4 F4 =E4 | F16 | F6 F2 G4 F4 | B8 c8 | d4 d4 c4 (B2 A2) | B16 | %16
 B4 B4 B4 c4 | d8 F8 | G4 F4 B4 d4 | c16 | d4 d4 e4 d4 | d8 c8 | B4 G4 B4 A4 | B16 | B8 B8 |] %25
V:2
 D4 G4 F4 F4 | F8 D8 | E4 F4 D4 =E4 | F16 | F4 _A4 G4 ^F4 | F8 E8 | F4 G4 F4 F4 | F16 | %8
 F6 F2 G4 F4 | F8 =E8 | F4 C4 D4 C4 | (C8 E8) | D6 D2 E4 F4 | D8 F8 | F4 F4 G4 F4 | F16 | %16
 D4 G4 F4 F4 | F8 D8 | E4 F4 D4 =E4 | F16 | F4 _A4 G4 ^F4 | F8 E8 | D4 G4 F4 F4 | F16 | E8 D8 |] %25
V:3
 D4 D4 D4 A,4 | B,8 B,8 | B,4 B,4 B,4 B,4 | A,16 | B,4 B,4 B,4 A,4 | =B,8 C8 | F,4 D4 B,4 C4 | %7
 D16 | C6 C2 D4 D4 | C8 B,8 | A,4 A,4 G,4 G,4 | (A,8 C8) | B,6 B,2 B,4 B,4 | B,8 A,8 | %14
 B,4 B,4 E4 C4 | D16 | B,4 B,4 B,4 A,4 | B,8 B,8 | B,4 B,4 B,4 B,4 | (B,4 A,4 F4 E4) | %20
 D4 B,4 B,4 A,4 | =B,8 G,8 | B,4 C4 C4 C4 | D16 | G,8 F,8 |] %25
V:4
 B,,4 E,4 D,4 F,4 | B,8 B,,8 | E,4 D,4 G,4 C,4 | F,16 | B,4 B,,4 C,4 D,4 | G,8 C,8 | %6
 D,4 E,4 F,4 F,4 | B,,16 | A,,6 A,,2 B,,4 =B,,4 | C,8 C,8 | D,4 A,,4 B,,4 C,4 | (F,8 A,8) | %12
 B,6 B,,2 E,4 D,4 | G,8 F,8 | B,4 D,4 E,4 F,4 | B,,16 | B,,4 E,4 D,4 F,4 | B,8 B,,8 | %18
 E,4 D,4 G,4 C,4 | (F,8 A,8) | D4 B,,4 C,4 D,4 | G,8 C,8 | G,4 E,4 F,4 F,4 | B,,16 | E,8 B,,8 |] %25

